X:1
T:Wardell Street
C:Norm Merrigan
L:1/8
M:6/8
K:Em
E2B BAG|ABd BAG|B2d BAG|FGF DEF|
E2B BAG|ABd BAG|B2B ABG|FED E3:|
|:B2g gfe|def edB|ABd BAG|FGF DEF|
B2g gfe|def edB|B2B ABG|FED E3:|
